pix/link.svg

<svg xmlns="http://www.w3.org/2000/svg" viewBox="0 0 210 250" enable-background="new 0 0 210 250"><circle fill="#666665" cx="106.7" cy="125.2" r="97.2"/><path fill="#E0E4E3" d="M177.2 92.7c0-8.7-7.2-16-16-16h-106.2c-8.7 0-16 7.2-16 16v65.9c0 8.7 7.2 16 16 16h106.4c8.7 0 16-7.2 16-16l-.2-65.9z"/><path fill="#D1D3D3" d="M177 90.9c-.8-7.8-7.6-14-15.8-14h-106.2c-8.7 0-16 7.2-16 16v3.1h138v-5.1z"/><circle fill="#E84849" cx="51.7" cy="86" r="3.6"/><circle fill="#EFC849" cx="65" cy="86" r="3.6"/><circle fill="#37B34C" cx="77.9" cy="86" r="3.6"/><path fill="#fff" d="M164.3 87.3c0 2.8-1.4 4.9-2.9 4.9h-60.9c-1.6 0-3-2.2-3-4.9 0-2.8 1.4-4.9 3-4.9h60.7c1.8-.2 3.1 2.3 3.1 4.9z"/><path fill="#C9C9C8" d="M110 152h-55.4c-1.8 0-3.2 1-3.2 2.3s1.5 2.3 3.2 2.3h55.3c1.8 0 3.2-1 3.2-2.3.2-1.3-1.3-2.3-3.1-2.3zM163.6 105.2c0 1.3-1.5 2.3-3.2 2.3h-105.8c-1.8 0-3.2-1-3.2-2.3 0-1.3 1.5-2.3 3.2-2.3h106.1c1.4-.1 2.9 1 2.9 2.3zM163.6 117.5c0 1.3-1.5 2.3-3.2 2.3h-105.8c-1.8 0-3.2-1-3.2-2.3 0-1.3 1.5-2.3 3.2-2.3h106.1c1.4.1 2.9 1.2 2.9 2.3zM163.6 129.4c0 1.3-1.5 2.3-3.2 2.3h-105.8c-1.8 0-3.2-1-3.2-2.3 0-1.3 1.5-2.3 3.2-2.3h106.1c1.4 0 2.9 1.1 2.9 2.3zM163.6 141.8c0 1.3-1.5 2.3-3.2 2.3h-105.8c-1.8 0-3.2-1-3.2-2.3 0-1.3 1.5-2.3 3.2-2.3h106.1c1.4.1 2.9 1.1 2.9 2.3z"/></svg>

<?xml version="1.0" encoding="utf-8"?>
<!-- Generator: Adobe Illustrator 18.0.0, SVG Export Plug-In . SVG Version: 6.00 Build 0)  -->
<!DOCTYPE svg PUBLIC "-//W3C//DTD SVG 1.1//EN" "http://www.w3.org/Graphics/SVG/1.1/DTD/svg11.dtd">
<svg version="1.1" id="Layer_1" xmlns="http://www.w3.org/2000/svg" xmlns:xlink="http://www.w3.org/1999/xlink" x="0px" y="0px"
	 viewBox="0 0 210 250" enable-background="new 0 0 210 250" xml:space="preserve">
<circle fill="#666665" cx="106.7" cy="125.2" r="97.2"/>
<path fill="#E0E4E3" d="M177.2,92.7c0-8.7-7.2-16-16-16H55c-8.7,0-16,7.2-16,16v65.9c0,8.7,7.2,16,16,16h106.4c8.7,0,16-7.2,16-16
	L177.2,92.7L177.2,92.7z"/>
<path fill="#D1D3D3" d="M177,90.9c-0.8-7.8-7.6-14-15.8-14H55c-8.7,0-16,7.2-16,16V96h138V90.9z"/>
<circle fill="#E84849" cx="51.7" cy="86" r="3.6"/>
<circle fill="#EFC849" cx="65" cy="86" r="3.6"/>
<circle fill="#37B34C" cx="77.9" cy="86" r="3.6"/>
<path fill="#FFFFFF" d="M164.3,87.3c0,2.8-1.4,4.9-2.9,4.9h-60.9c-1.6,0-3-2.2-3-4.9l0,0c0-2.8,1.4-4.9,3-4.9h60.7
	C163,82.2,164.3,84.7,164.3,87.3L164.3,87.3z"/>
<path fill="#C9C9C8" d="M110,152H54.6c-1.8,0-3.2,1-3.2,2.3s1.5,2.3,3.2,2.3h55.3c1.8,0,3.2-1,3.2-2.3C113.3,153,111.8,152,110,152z
	"/>
<path fill="#C9C9C8" d="M163.6,105.2c0,1.3-1.5,2.3-3.2,2.3H54.6c-1.8,0-3.2-1-3.2-2.3l0,0c0-1.3,1.5-2.3,3.2-2.3h106.1
	C162.1,102.8,163.6,103.9,163.6,105.2L163.6,105.2z"/>
<path fill="#C9C9C8" d="M163.6,117.5c0,1.3-1.5,2.3-3.2,2.3H54.6c-1.8,0-3.2-1-3.2-2.3l0,0c0-1.3,1.5-2.3,3.2-2.3h106.1
	C162.1,115.3,163.6,116.4,163.6,117.5L163.6,117.5z"/>
<path fill="#C9C9C8" d="M163.6,129.4c0,1.3-1.5,2.3-3.2,2.3H54.6c-1.8,0-3.2-1-3.2-2.3l0,0c0-1.3,1.5-2.3,3.2-2.3h106.1
	C162.1,127.1,163.6,128.2,163.6,129.4L163.6,129.4z"/>
<path fill="#C9C9C8" d="M163.6,141.8c0,1.3-1.5,2.3-3.2,2.3H54.6c-1.8,0-3.2-1-3.2-2.3l0,0c0-1.3,1.5-2.3,3.2-2.3h106.1
	C162.1,139.6,163.6,140.6,163.6,141.8L163.6,141.8z"/>
</svg>
